Catalina-light/actions/16/format-align-vertical-center.svg

<svg xmlns="http://www.w3.org/2000/svg" width="16" height="16" viewBox="0 0 16 16">
 <defs>
  <style id="current-color-scheme" type="text/css">
   .ColorScheme-Text { color:#5c616c; } .ColorScheme-Highlight { color:#5294e2; }
  </style>
 </defs>
 <path style="fill:currentColor" class="ColorScheme-Text" d="M 7.0175781 0 L 6.9863281 4.46875 L 3.3710938 0.8125 L 2 2.21875 L 8.015625 8 L 14 2.21875 L 12.628906 0.8125 L 8.9824219 4.46875 L 9.0136719 0 L 7.0175781 0 z M 8.015625 8 L 2 13.78125 L 3.3710938 15.1875 L 6.9863281 11.53125 L 7.0175781 16 L 9.0136719 16 L 8.9824219 11.53125 L 12.628906 15.1875 L 14 13.78125 L 8.015625 8 z"/>
</svg>

<svg width="16" height="16" viewBox="0 0 16 16" xmlns="http://www.w3.org/2000/svg">
<defs>
<style id="current-color-scheme" type="text/css">.ColorScheme-Text { color:#5c616c; } .ColorScheme-Highlight { color:#5294e2; }</style>
</defs>
<path class="ColorScheme-Text" d="m7.0176 0-0.03125 4.4688-3.6152-3.6562-1.3711 1.4062 6.0156 5.7812 5.9844-5.7812-1.3711-1.4062-3.6465 3.6562 0.03125-4.4688h-1.9961zm0.99805 8-6.0156 5.7812 1.3711 1.4062 3.6152-3.6562 0.03125 4.4688h1.9961l-0.03125-4.4688 3.6465 3.6562 1.3711-1.4062-5.9844-5.7812z" fill="#363636"/>
</svg>
